neru-dark-classic/22x22/emblems/emblem-system.svg

<svg xmlns="http://www.w3.org/2000/svg" width="22" height="22" version="1.1" viewBox="0 0 22 22">
 <g transform="translate(-1,1)">
  <circle style="fill:#5c616c" cx="12" cy="10" r="10"/>
  <path style="fill:#ffffff" d="m 10.5,3 0,1.709961 A 5.5000005,5.5000005 0 0 0 9.324219,5.2021485 L 8.111328,3.989258 5.989258,6.111328 7.199219,7.321289 A 5.5000005,5.5000005 0 0 0 6.713867,8.5 L 5,8.5 l 0,3 1.709961,0 a 5.5000005,5.5000005 0 0 0 0.4921875,1.175781 l -1.2128905,1.212891 2.12207,2.12207 1.209961,-1.209961 A 5.5000005,5.5000005 0 0 0 10.5,15.286133 L 10.5,17 l 3,0 0,-1.709961 a 5.5000005,5.5000005 0 0 0 1.175781,-0.492188 l 1.212891,1.212891 2.12207,-2.12207 -1.209961,-1.209961 A 5.5000005,5.5000005 0 0 0 17.286133,11.5 L 19,11.5 l 0,-3 -1.709961,0 A 5.5000005,5.5000005 0 0 0 16.797851,7.324219 l 1.212891,-1.212891 -2.12207,-2.12207 -1.209961,1.209961 A 5.5000005,5.5000005 0 0 0 13.5,4.713867 L 13.5,3 10.5,3 Z M 12,7.5 A 2.5,2.5 0 0 1 14.5,10 2.5,2.5 0 0 1 12,12.5 2.5,2.5 0 0 1 9.5,10 2.5,2.5 0 0 1 12,7.5 Z"/>
 </g>
</svg>

<svg xmlns="http://www.w3.org/2000/svg" width="22" height="22"><g transform="translate(-1 1)"><circle cx="12" cy="10" r="10" fill="#5c616c"/><path d="M10.5 3v1.71a5.5 5.5 0 0 0-1.176.492L8.111 3.99 5.99 6.111l1.21 1.21A5.5 5.5 0 0 0 6.714 8.5H5v3h1.71a5.5 5.5 0 0 0 .492 1.176L5.99 13.889l2.122 2.122 1.21-1.21a5.5 5.5 0 0 0 1.179.485V17h3v-1.71a5.5 5.5 0 0 0 1.176-.492l1.213 1.213 2.122-2.122-1.21-1.21a5.5 5.5 0 0 0 .485-1.179H19v-3h-1.71a5.5 5.5 0 0 0-.492-1.176l1.213-1.213-2.122-2.122-1.21 1.21a5.5 5.5 0 0 0-1.179-.485V3h-3zM12 7.5a2.5 2.5 0 0 1 2.5 2.5 2.5 2.5 0 0 1-2.5 2.5A2.5 2.5 0 0 1 9.5 10 2.5 2.5 0 0 1 12 7.5z" fill="#fff"/></g></svg>
